X:1
T:Title
%%score ( 1 2 3 ) { ( 4 7 ) | ( 5 6 ) }
L:1/8
M:3/4
K:G
V:1 treble nm="Grand Piano, Soprano"
V:2 treble 
V:3 treble 
V:4 bass nm="Choir Pad, He Careth for Thee"
V:7 bass 
V:5 bass 
V:6 bass 
V:1
 z6 | z2 [Ge]2 [=FB]2 | z2 c4 | [DB]>[Ec] [CA]2 [DB]2 | [DB]2 [^C_B]2 [D=B]2 | [B,G]4 [=FG][FG] | %6
 [EG]2 [^DF]2 [EG]2 | [CE]4 [CE]2 | [CE]2 [B,D]2 [B,D]2 | [B,G]2 [CA]2 [DB]2 | [^CA]2 [CE]2 [CB]2 | %11
 [CA]4 [^C_B]2 | [DB]2 [^C_B]2 [D=B]2 | [=Fd]2 [Fc]2 [FB]2 | [EA]2 [EA]2 [EB]2 | [Ec]4 [EA]2 | %16
 [DB]2 [^C_B]2 [D=B]2 | [Fd]2 [Ec]2 [DB]2 | [CA]2 [CE]2 [CF]2 | [B,G]4 [GB]2 | [Fd]2 [FA]2 [FB]2 | %21
 [Fc]4 [Fc][Fc] | [GB]2 G2 [FA]2 | [GB]4 B2 | d2 B2 [=FG]2 | [EG]2 [CE]2 [EG][^DA] | %26
 [DB]2 [DG]2 [DA]2 | [DG]4 z2 | [DB]2 [DB]2 [^C_B]2 | [DB]2 [B,G]4 | [=FG][FG] [EG]2 [^D^F]2 | %31
 [EG]2 [CE]4 | [CE]2 [CE]2 [B,D]2 | [B,D]2 [B,G]2 [CA]2 | [DB]2 [^CA]2 [CE]2 | [^CB]2 [=CA]4 | %36
 [^C_B]2 [D=B]2 [C_B]2 | [DB]2 [=Fd]2 [Fc]2 | [=FB]2 [EA]2 [EA]2 | [EB]2 [Ec]4 | %40
 [EA]2 [DB]2 [^C_B]2 | [DB]2 [Fd]2 [Ec]2 | [DB]2 [CA]2 [CE]2 | [CF]2 [B,G]4 | [GB]2 [Fd]2 [FA]2 | %45
 [FB]2 [Fc]4 | [Fc][Fc] [GB]2 G2 | [FA]2 [GB]4 | B2 d2 B2 | [=FG]2 [EG]2 [CE]2 | %50
 [EG][^DA] [=DB]2 [DG]2 | [DA]2 [DG]4 | z2 [DB]2 [DB]2 | [^C_B]2 [D=B]2 [B,G]2- | %54
 [B,G]2 [=FG][FG] [EG]2 | [^DF]2 [EG]2 [CE]2- | [CE]2 [CE]2 [CE]2 | [B,D]2 [B,D]2 [B,G]2 | %58
 [CA]2 [DB]2 [^CA]2 | [^CE]2 [CB]2 [=CA]2- | [CA]2 [^C_B]2 [D=B]2 | [^C_B]2 [D=B]2 [=Fd]2 | %62
 [=Fc]2 [FB]2 [EA]2 | [EA]2 [EB]2 [Ec]2- | [Ec]2 [EA]2 [DB]2 | [^C_B]2 [D=B]2 [Fd]2 | %66
 [Ec]2 [DB]2 [CA]2 | [CE]2 [CF]2 [B,G]2- | [B,G]2 [GB]2 [Fd]2 | [FA]2 [FB]2 [Fc]2- | %70
 [Fc]2 [Fc][Fc] [GB]2 | G2 [FA]2 [GB]2- | [GB]2 B2 d2 | B2 [=FG]2 [EG]2 | [CE]2 [EG][^DA] [=DB]2 | %75
 [DG]2 [DA]2 [DG]2- | [DG]2 z2 z2 |] %77
V:2
 x6 | x6 | d2 z2 ^D2 | x6 | x6 | x6 | x6 | x6 | x6 | x6 | x6 | x6 | x6 | x6 | x6 | x6 | x6 | x6 | %18
 x6 | x6 | x6 | x6 | x6 | x6 | x6 | x6 | x6 | x6 | x6 | x6 | x6 | x6 | x6 | x6 | x6 | x6 | x6 | %37
 x6 | x6 | x6 | x6 | x6 | x6 | x6 | x6 | x6 | x6 | x6 | x6 | x6 | x6 | x6 | x6 | x6 | x6 | x6 | %56
 x6 | x6 | x6 | x6 | x6 | x6 | x6 | x6 | x6 | x6 | x6 | x6 | x6 | x6 | x6 | x6 | x6 | x6 | x6 | %75
 x6 | x6 |] %77
V:3
 x6 | x6 | E4 z2 | x6 | x6 | x6 | x6 | x6 | x6 | x6 | x6 | x6 | x6 | x6 | x6 | x6 | x6 | x6 | x6 | %19
 x6 | x6 | x6 | x6 | x6 | x6 | x6 | x6 | x6 | x6 | x6 | x6 | x6 | x6 | x6 | x6 | x6 | x6 | x6 | %38
 x6 | x6 | x6 | x6 | x6 | x6 | x6 | x6 | x6 | x6 | x6 | x6 | x6 | x6 | x6 | x6 | x6 | x6 | x6 | %57
 x6 | x6 | x6 | x6 | x6 | x6 | x6 | x6 | x6 | x6 | x6 | x6 | x6 | x6 | x6 | x6 | x6 | x6 | x6 | %76
 x6 |] %77
V:4
 D,^C, D,E, F,G, | B,4 G,2 | A,4 G,2- | G,4 z2 | z6 | z6 | z6 | z6 | z6 | z6 | z6 | G,2 F,2 E,2 | %12
w: By~E.~H.~Bemis * * * * *||||||||||||
 z2 E,2 D,2 | z2 D,2 G,2 | z2 G,2 ^G,2 | z2 A,2 C2 | D,2 z2 z2 | D,2 z2 z2 | z2 G,2 A,2 | G,4 B,2 | %20
w: ||||||||
 A,2 C2 B,2 | A,4[K:treble] DD | D2 D2 D2 | D4 z2 | z2 z2[K:bass] B,2 | C2 G,2 G,2 | G,2 B,2 C2 | %27
w: |||||||
 B,4 z2 | z2 z2 E,2 | D,2 z2 D,2 | G,2 z2 A,2 | G,2 z2 E,2 | G,2 z2 D,2 | G,2 z2 D,2 | G,2 z2 A,2 | %35
w: ||||||||
 G,2 G,2 F,2 | E,2 z2 E,2 | D,2 z2 D,2 | G,2 z2 G,2 | ^G,2 z2 A,2 | C2 D,2 z2 | z2 D,2 z2 | %42
w: |||||||
 z2 z2 G,2 | A,2 G,4 | B,2 A,2 C2 | B,2 A,4 | DD D2 D2 | D2 D4 | z6 | B,2 C2 G,2 | G,2 G,2 B,2 | %51
w: |||||||||
 C2 B,4 | z6 | E,2 D,2 z2 | D,2 G,2 z2 | A,2 G,2 z2 | E,2 G,2 z2 | D,2 G,2 z2 | D,2 G,2 z2 | %59
w: ||||||||
 A,2 G,2 G,2 | F,2 E,2 z2 | E,2 D,2 z2 | D,2 G,2 z2 | G,2 ^G,2 z2 | A,2 C2 D,2 | z2 z2 D,2 | z6 | %67
w: ||||||||
 G,2 A,2 G,2- | G,2 B,2 A,2 | C2 B,2 A,2- | A,2[K:treble] DD D2 | D2 D2 D2- | D2 z2 z2 | %73
w: ||||||
 z2[K:bass] B,2 C2 | G,2 G,2 G,2 | B,2 C2 B,2- | B,2 z2 z2 |] %77
w: ||||
V:5
 z6 | z6 | z2 z2 A,,2 | z2 z F, z2 | z2 E,2 D,2 | z2 D,2 G,2 | z2 A,2 G,2 | z2 E,2 G,2 | %8
 z2 D,2 G,2 | z2 D,2 G,2 | z2 A,2 G,2 | D,2 z2 z2 | z6 | z6 | z2 z2 B,,2 | z6 | D,,2 z2 z2 | %17
 D,,2 z2 z2 | z6 | [G,,D,]4 G,2 | D,2 D,2 D,2 | D,4 D,D, | G,2 B,2 A,2 | G,4 z2 | z2 z2 G,2 | %25
 C,2 C,2 C,2 | D,2 D,2 D,2 | G,,4 z2 | z6 | z6 | z6 | z6 | z6 | z6 | z6 | z2 D,2 z2 | z6 | z6 | %38
 z6 | B,,2 z2 z2 | z2 D,,2 z2 | z2 D,,2 z2 | z6 | z2 [G,,D,]4 | G,2 D,2 D,2 | D,2 D,4 | %46
 D,D, G,2 B,2 | A,2 G,4 | z6 | G,2 C,2 C,2 | C,2 D,2 D,2 | D,2 G,,4 | z6 | z6 | z6 | z6 | z6 | z6 | %58
 z6 | z2 z2 D,2 | z6 | z6 | z6 | z2 B,,2 z2 | z2 z2 D,,2 | z2 z2 D,,2 | z6 | z2 z2 [G,,D,]2- | %68
 [G,,D,]2 G,2 D,2 | D,2 D,2 D,2- | D,2 D,D, G,2 | B,2 A,2 G,2- | G,2 z2 z2 | z2 G,2 C,2 | %74
 C,2 C,2 D,2 | D,2 D,2 G,,2- | G,,2 z2 z2 |] %77
V:6
 x6 | x6 | x6 | D,4 z2 | G,,6 | G,,6 | C,6 | C,6 | G,,6 | G,,6 | A,,6 | x6 | x6 | x6 | x6 | x6 | %16
 x6 | x6 | x6 | x6 | x6 | x6 | x6 | x6 | x6 | x6 | x6 | x6 | x6 | x6 | x6 | x6 | x6 | x6 | x6 | %35
 x6 | x6 | x6 | x6 | x6 | x6 | x6 | x6 | x6 | x6 | x6 | x6 | x6 | x6 | x6 | x6 | x6 | x6 | x6 | %54
 x6 | x6 | x6 | x6 | x6 | x6 | x6 | x6 | x6 | x6 | x6 | x6 | x6 | x6 | x6 | x6 | x6 | x6 | x6 | %73
 x6 | x6 | x6 | x6 |] %77
V:7
 x6 | x6 | x6 | x6 | x6 | x6 | x6 | x6 | x6 | x6 | x6 | x6 | G,,6 | G,,6 | C,4 z2 | A,,6 | x6 | %17
 x6 | D,6 | x6 | x6 | x4[K:treble] x2 | x6 | x6 | x4[K:bass] x2 | x6 | x6 | x6 | z2 G,,4- | %29
 G,,2 G,,4- | G,,2 C,4- | C,2 C,4- | C,2 G,,4- | G,,2 G,,4- | G,,2 A,,4- | A,,2 z2 z2 | z2 G,,4- | %37
 G,,2 G,,4- | G,,2 C,4 | z2 A,,4- | A,,2 z2 z2 | x6 | z2 D,4- | D,2 z2 z2 | x6 | x6 | x6 | x6 | %48
 x6 | x6 | x6 | x6 | z2 z2 G,,2- | G,,4 G,,2- | G,,4 C,2- | C,4 C,2- | C,4 G,,2- | G,,4 G,,2- | %58
 G,,4 A,,2- | A,,4 z2 | z2 z2 G,,2- | G,,4 G,,2- | G,,4 C,2- | C,2 z2 A,,2- | A,,4 z2 | x6 | %66
 z2 z2 D,2- | D,4 z2 | x6 | x6 | x2[K:treble] x4 | x6 | x6 | x2[K:bass] x4 | x6 | x6 | x6 |] %77

